img/popup-like.svg

<svg width="26" height="22" viewBox="0 0 26 22" fill="none" xmlns="http://www.w3.org/2000/svg">
<path d="M13.2317 3.09727C9.57262 0.240311 6.19641 0.251831 3.18126 3.13759C2.46542 3.81592 1.89717 4.62332 1.50936 5.51312C1.12156 6.40293 0.921875 7.35748 0.921875 8.32159C0.921875 9.2857 1.12156 10.2403 1.50936 11.1301C1.89717 12.0199 2.46542 12.8273 3.18126 13.5056L3.21134 13.5344C7.89055 17.5664 10.2377 19.5824 11.4112 20.5875L12.4494 21.4803C12.6252 21.6529 12.8502 21.7721 13.0964 21.823C13.1508 21.8337 13.2062 21.8394 13.2618 21.8403C13.3572 21.8399 13.4508 21.8151 13.5327 21.7683L13.635 21.7222C14.1164 21.3742 14.5775 21.0011 15.0162 20.6048C16.0965 19.6861 18.4045 17.7248 23.2582 13.5517L23.2913 13.5229C24.0075 12.8447 24.5761 12.0374 24.9641 11.1476C25.3521 10.2577 25.5519 9.30309 25.5519 8.33887C25.5519 7.37465 25.3521 6.42 24.9641 5.53017C24.5761 4.64034 24.0075 3.833 23.2913 3.15487C19.6081 -0.381768 15.8858 1.03231 13.2317 3.09727Z" fill="white" fill-opacity="0.4"/>
</svg>

<svg width="26" height="22" fill="none" xmlns="http://www.w3.org/2000/svg"><path d="M13.232 3.097C9.572.24 6.196.252 3.182 3.137a7.286 7.286 0 00-1.673 2.376 7.025 7.025 0 00-.587 2.809c0 .964.2 1.918.587 2.808.388.89.956 1.697 1.672 2.376l.03.028a4371.29 4371.29 0 008.2 7.053l1.038.893c.176.173.401.292.647.343.055.01.11.016.166.017a.551.551 0 00.27-.072l.103-.046c.481-.348.943-.72 1.381-1.117 1.08-.919 3.388-2.88 8.242-7.053l.033-.03a7.284 7.284 0 001.673-2.374c.388-.89.588-1.845.588-2.81 0-.963-.2-1.918-.588-2.808a7.283 7.283 0 00-1.673-2.375c-3.683-3.537-7.405-2.123-10.06-.058z" fill="#fff" fill-opacity=".4"/></svg>
